src/constants/images/delegators-icon.svg

<svg width="69" height="72" viewBox="0 0 69 72" fill="none" xmlns="http://www.w3.org/2000/svg">
<path d="M67.6042 41.4048H56.7283V24.1473C56.7283 23.3764 56.1033 22.7515 55.3325 22.7515H44.608L35.0346 13.1782C33.5128 11.6564 31.3304 10.9153 29.1968 11.1953L23.4796 11.9458C23.5992 11.4829 23.4793 10.971 23.1168 10.6085L19.9445 7.43624C19.8834 7.32877 19.8089 7.22842 19.7198 7.13937L12.9892 0.40878C12.4442 -0.13626 11.5604 -0.13626 11.0154 0.40878L0.40878 11.0154C-0.13626 11.5604 -0.13626 12.4442 0.40878 12.9892L17.969 30.5496C19.3359 31.9165 21.153 32.6777 23.0857 32.693L31.3106 32.7593V41.4048H3.8581C3.08723 41.4048 2.46235 42.0296 2.46235 42.8005V70.0666C2.46235 70.8375 3.08723 71.4624 3.8581 71.4624H67.6042C68.3751 71.4624 69 70.8375 69 70.0666V42.8005C69 42.0296 68.375 41.4048 67.6042 41.4048ZM53.9366 25.5437V50.1074H34.1021V32.7042C34.1354 32.6985 34.1681 32.6914 34.2013 32.6851C34.2314 32.6794 34.2616 32.6739 34.2916 32.6676C34.3431 32.6568 34.394 32.6446 34.445 32.6322C34.4705 32.6259 34.4964 32.6203 34.5218 32.6138C34.5897 32.596 34.657 32.5768 34.7239 32.5563C34.7317 32.5539 34.7396 32.5519 34.7475 32.5494C34.8221 32.5261 34.896 32.5009 34.9691 32.4742C34.9907 32.4662 35.0119 32.4574 35.0336 32.4492C35.0847 32.4298 35.1355 32.4101 35.1857 32.3892C35.2127 32.3779 35.239 32.3659 35.2657 32.3542C35.3099 32.3348 35.3539 32.3152 35.3974 32.2944C35.4256 32.281 35.4534 32.2671 35.4813 32.2531C35.5225 32.2326 35.5635 32.2118 35.6042 32.1902C35.6324 32.1751 35.6604 32.1597 35.6883 32.1441C35.728 32.122 35.7672 32.0994 35.8061 32.0763C35.8336 32.0599 35.861 32.0436 35.8881 32.0267C35.9269 32.0027 35.9651 31.9779 36.0032 31.9529C36.0293 31.9357 36.0554 31.9187 36.0812 31.901C36.1203 31.8742 36.1587 31.8464 36.1969 31.8186C36.2205 31.8014 36.2444 31.7847 36.2676 31.7671C36.3104 31.7347 36.3523 31.7014 36.394 31.6677C36.4116 31.6535 36.4297 31.6398 36.4472 31.6254C36.506 31.5767 36.5636 31.5269 36.62 31.4757C36.6285 31.4679 36.6367 31.4596 36.6452 31.4518C36.6928 31.408 36.7397 31.3636 36.7855 31.3181C36.8044 31.2994 36.8225 31.2798 36.8411 31.2609C36.8757 31.2253 36.9102 31.1897 36.9438 31.1531C36.9645 31.1306 36.9843 31.1078 37.0045 31.0849C37.0349 31.0505 37.0652 31.0159 37.0947 30.9807C37.1152 30.9563 37.1352 30.9316 37.1551 30.9068C37.1833 30.8719 37.2111 30.8367 37.2383 30.801C37.2578 30.7754 37.2771 30.7496 37.2961 30.7236C37.3226 30.6875 37.3486 30.6509 37.3741 30.6139C37.3923 30.5877 37.4104 30.5615 37.4281 30.5348C37.4535 30.4967 37.4781 30.458 37.5024 30.4191C37.5188 30.3928 37.5355 30.3667 37.5514 30.3402C37.5765 30.2985 37.6005 30.2559 37.6244 30.2135C37.6381 30.1891 37.6523 30.1649 37.6655 30.1404C37.6939 30.0879 37.7208 30.0344 37.7473 29.9808C37.7549 29.9655 37.7631 29.9505 37.7705 29.935C37.8039 29.8658 37.8357 29.7956 37.8658 29.7246C37.8741 29.7052 37.8815 29.6852 37.8896 29.6655C37.9109 29.6135 37.932 29.5613 37.9517 29.5084C37.9617 29.4813 37.9708 29.4539 37.9804 29.4266C37.9966 29.3804 38.0127 29.3342 38.0276 29.2874C38.0372 29.2573 38.046 29.2268 38.0551 29.1964C38.0684 29.1517 38.0813 29.1068 38.0935 29.0616C38.102 29.0299 38.11 28.9979 38.1178 28.966C38.1288 28.9212 38.1393 28.8764 38.149 28.8311C38.1562 28.7985 38.1628 28.7658 38.1693 28.733C38.1782 28.6872 38.1863 28.6412 38.194 28.595C38.1994 28.5625 38.2049 28.5301 38.2096 28.4974C38.2166 28.4493 38.2224 28.4007 38.2282 28.3521C38.2318 28.3209 38.2358 28.2899 38.2389 28.2585C38.2441 28.2047 38.2479 28.1506 38.2513 28.0963C38.253 28.0698 38.2555 28.0434 38.2568 28.0167C38.2607 27.9356 38.2629 27.8541 38.2629 27.772V27.7556C38.2629 27.6622 38.2599 27.5697 38.2548 27.4777C38.2532 27.4477 38.2502 27.4181 38.248 27.3884C38.2435 27.3264 38.2385 27.2644 38.2317 27.2031C38.2279 27.1685 38.223 27.1341 38.2185 27.0997C38.2111 27.0435 38.2032 26.9874 38.1938 26.9317C38.188 26.8964 38.1815 26.8612 38.175 26.8261C38.1647 26.7714 38.1534 26.7171 38.1414 26.6631C38.1337 26.6288 38.126 26.5946 38.1176 26.5605C38.104 26.5048 38.0889 26.4499 38.0734 26.3949C38.0646 26.3639 38.0562 26.3326 38.0469 26.3019C38.0277 26.2392 38.0069 26.1773 37.9854 26.1156C37.9778 26.0937 37.9711 26.0713 37.9631 26.0496C37.9328 25.9664 37.9006 25.8843 37.8661 25.8032C37.8594 25.7873 37.8517 25.7719 37.8448 25.7562C37.8164 25.6915 37.7873 25.6273 37.7563 25.5641C37.7531 25.5574 37.7503 25.5504 37.7469 25.5437H53.9366ZM3.36973 12.0023L12.0023 3.36959L16.7592 8.1263L8.12644 16.7592L3.36973 12.0023ZM10.1003 18.7332L18.697 10.1363L20.156 11.5954L11.5593 20.1921L10.1003 18.7332ZM23.1081 29.9015C21.9125 29.8922 20.7886 29.4213 19.943 28.5756L13.5333 22.1659L15.7262 19.973L20.5541 15.1451L29.5603 13.9629C30.8395 13.795 32.1483 14.2394 33.0608 15.152L40.6603 22.7513H33.2596H27.8269C27.056 22.7513 26.4312 23.3761 26.4312 24.147C26.4312 24.9179 27.056 25.5428 27.8269 25.5428H33.2594C34.4792 25.5428 35.4716 26.5351 35.4716 27.7549V27.7713C35.4716 28.1525 35.3747 28.5115 35.2046 28.8249C34.8302 29.5144 34.1016 29.9835 33.2707 29.9835L23.1081 29.9015ZM5.25385 44.1963H31.3106V50.1074H19.3755C18.6046 50.1074 17.9797 50.7323 17.9797 51.5032C17.9797 52.274 18.6046 52.8989 19.3755 52.8989H32.7063H55.3324H56.9757C57.7465 52.8989 58.3715 52.274 58.3715 51.5032C58.3715 50.7323 57.7465 50.1074 56.9757 50.1074H56.7281V44.1963H66.2084V60.732H5.25385V44.1963ZM66.2085 68.6709H5.25385V63.5235H66.2085V68.6709Z" fill="white"/>
<path d="M50.9842 30.6335C50.3388 30.2112 49.474 30.3923 49.0519 31.0371L43.6998 39.2165L39.5668 35.8526C38.9692 35.3662 38.0899 35.4562 37.6033 36.054C37.1167 36.6518 37.2069 37.531 37.8047 38.0175L43.1387 42.3592C43.3892 42.5631 43.7009 42.6724 44.0198 42.6724C44.0912 42.6724 44.1626 42.6669 44.2341 42.6558C44.6248 42.595 44.9712 42.3716 45.1878 42.0408L51.388 32.5656C51.8099 31.9205 51.6292 31.0555 50.9842 30.6335Z" fill="white"/>
<path d="M23.6859 23.8743C23.6677 23.785 23.6412 23.6984 23.6063 23.6133C23.5714 23.5295 23.5282 23.4486 23.4779 23.3732C23.4263 23.2964 23.369 23.2253 23.3034 23.1597C23.2392 23.0955 23.1681 23.0382 23.0913 22.9866C23.0159 22.9363 22.935 22.8931 22.8512 22.8582C22.7661 22.8233 22.6795 22.7968 22.5902 22.7786C22.4102 22.7423 22.2245 22.7423 22.0445 22.7786C21.9551 22.7968 21.8672 22.8233 21.7835 22.8582C21.6983 22.8931 21.6174 22.9363 21.542 22.9866C21.4652 23.0382 21.3941 23.0955 21.3299 23.1597C21.2656 23.2253 21.207 23.2964 21.1568 23.3732C21.1065 23.4486 21.0633 23.5295 21.0284 23.6133C20.9935 23.6984 20.967 23.785 20.9488 23.8743C20.9307 23.965 20.9209 24.0557 20.9209 24.1479C20.9209 24.2386 20.9307 24.3307 20.9488 24.42C20.967 24.5094 20.9935 24.5973 21.0284 24.681C21.0633 24.7648 21.1065 24.8457 21.1568 24.9225C21.207 24.9979 21.2656 25.0703 21.3299 25.1346C21.3941 25.1989 21.4652 25.2575 21.542 25.3077C21.6174 25.358 21.6983 25.4012 21.7835 25.4361C21.8672 25.471 21.9551 25.4975 22.0445 25.5157C22.1338 25.5338 22.2259 25.5436 22.3166 25.5436C22.4088 25.5436 22.4995 25.5338 22.5902 25.5157C22.6795 25.4975 22.7661 25.471 22.8512 25.4361C22.935 25.4012 23.0159 25.358 23.0913 25.3077C23.1681 25.2575 23.2392 25.1989 23.3034 25.1346C23.369 25.0703 23.4263 24.9979 23.4779 24.9225C23.5282 24.8457 23.5714 24.7648 23.6063 24.681C23.6412 24.5973 23.6677 24.5094 23.6859 24.42C23.704 24.3307 23.7124 24.2386 23.7124 24.1479C23.7124 24.0557 23.704 23.965 23.6859 23.8743Z" fill="white"/>
<path d="M15.8544 51.231C15.8377 51.1416 15.8097 51.0537 15.7748 50.97C15.74 50.8848 15.6967 50.8039 15.6464 50.7285C15.5962 50.6517 15.5376 50.5806 15.4734 50.5163C15.4092 50.4521 15.338 50.3935 15.2612 50.3433C15.1858 50.293 15.1049 50.2498 15.0197 50.2149C14.936 50.18 14.8481 50.1535 14.7587 50.1353C14.5787 50.099 14.3945 50.099 14.2144 50.1353C14.1251 50.1535 14.0371 50.18 13.9534 50.2149C13.8683 50.2498 13.7873 50.293 13.7119 50.3433C13.6352 50.3935 13.564 50.4521 13.4998 50.5163C13.4356 50.5806 13.3769 50.6517 13.3267 50.7285C13.2765 50.8039 13.2332 50.8848 13.1983 50.97C13.1634 51.0537 13.1369 51.1416 13.1187 51.231C13.1006 51.3203 13.0908 51.4124 13.0908 51.5031C13.0908 51.5939 13.1006 51.686 13.1187 51.7753C13.1369 51.8646 13.1634 51.9526 13.1983 52.0377C13.2332 52.1215 13.2765 52.2024 13.3267 52.2778C13.3769 52.3546 13.4356 52.4257 13.4998 52.4899C13.564 52.5541 13.6352 52.6128 13.7119 52.663C13.7872 52.7133 13.8683 52.7565 13.9534 52.7914C14.0371 52.8263 14.1251 52.8542 14.2144 52.871C14.3037 52.8891 14.3958 52.8989 14.4866 52.8989C14.8537 52.8989 15.2138 52.7496 15.4734 52.4899C15.5376 52.4257 15.5962 52.3546 15.6464 52.2778C15.6967 52.2024 15.74 52.1215 15.7748 52.0377C15.8097 51.9526 15.8377 51.8646 15.8544 51.7753C15.8726 51.686 15.8823 51.5939 15.8823 51.5031C15.8823 51.4124 15.8726 51.3203 15.8544 51.231Z" fill="white"/>
</svg>

<svg width="69" height="72" fill="none" xmlns="http://www.w3.org/2000/svg"><path d="M67.604 41.405H56.728V24.147c0-.77-.625-1.395-1.395-1.395H44.608l-9.573-9.574a7.016 7.016 0 00-5.838-1.983l-5.717.75c.12-.462 0-.974-.363-1.337l-3.172-3.172a1.388 1.388 0 00-.225-.297L12.99.41a1.396 1.396 0 00-1.975 0L.41 11.015a1.396 1.396 0 000 1.974l17.56 17.56a7.276 7.276 0 005.117 2.144l8.225.066v8.646H3.858c-.77 0-1.396.625-1.396 1.395v27.267c0 .77.625 1.395 1.396 1.395h63.746c.771 0 1.396-.624 1.396-1.395V42.8c0-.771-.625-1.396-1.396-1.396zM53.937 25.544v24.563H34.102V32.704c.033-.005.066-.013.1-.019l.09-.017.153-.036.077-.018c.068-.018.135-.037.202-.058l.024-.007c.074-.023.148-.048.221-.075l.065-.025c.05-.02.102-.039.152-.06l.08-.035a4.459 4.459 0 00.54-.278 5.11 5.11 0 00.197-.123l.078-.052c.04-.027.078-.055.116-.082l.07-.052c.043-.032.085-.066.127-.1.018-.014.036-.027.053-.042.059-.048.117-.098.173-.15l.025-.023c.048-.044.095-.088.14-.134l.056-.057c.035-.036.07-.071.103-.108l.06-.068a5.258 5.258 0 00.292-.361 4.519 4.519 0 00.206-.305l.05-.079c.025-.041.048-.084.072-.127l.041-.073a4.89 4.89 0 00.082-.16l.023-.045c.034-.07.066-.14.096-.21l.024-.06a5.23 5.23 0 00.062-.157l.028-.081c.017-.047.033-.093.048-.14l.027-.09a5.48 5.48 0 00.114-.464c.01-.046.017-.092.025-.138l.016-.098c.007-.048.012-.096.018-.145.004-.031.008-.062.01-.093.006-.054.01-.108.013-.163.002-.026.005-.053.006-.08a5.09 5.09 0 00.006-.244v-.016c0-.094-.003-.186-.008-.278l-.007-.09a4.903 4.903 0 00-.016-.185l-.014-.103a4.686 4.686 0 00-.145-.705l-.026-.093a5.137 5.137 0 00-.062-.186l-.022-.066a4.998 4.998 0 00-.097-.247l-.021-.047a4.99 4.99 0 00-.089-.192l-.01-.02h16.19zM3.37 12.002l8.632-8.632 4.757 4.756-8.633 8.633-4.756-4.757zm6.73 6.731l8.597-8.597 1.459 1.46-8.597 8.596-1.459-1.459zm13.008 11.168a4.5 4.5 0 01-3.165-1.325l-6.41-6.41 2.193-2.193 4.828-4.828 9.006-1.182a4.207 4.207 0 013.5 1.189l7.6 7.6H27.827a1.396 1.396 0 100 2.79h5.432c1.22 0 2.213.993 2.213 2.213v.016c0 .381-.097.74-.267 1.054a2.205 2.205 0 01-1.934 1.159L23.108 29.9zM5.254 44.197H31.31v5.911H19.375a1.396 1.396 0 100 2.792h37.601a1.396 1.396 0 000-2.792h-.248v-5.91h9.48v16.535H5.254V44.196zm60.955 24.475H5.254v-5.148h60.955v5.148z" fill="#fff"/><path d="M50.984 30.634a1.396 1.396 0 00-1.932.403l-5.352 8.18-4.133-3.364a1.396 1.396 0 00-1.762 2.164l5.334 4.342a1.396 1.396 0 002.049-.318l6.2-9.475a1.396 1.396 0 00-.404-1.933zM23.686 23.874a1.446 1.446 0 00-.208-.5 1.417 1.417 0 00-.387-.387 1.412 1.412 0 00-.5-.208 1.38 1.38 0 00-1.049.208 1.402 1.402 0 00-.514.627 1.446 1.446 0 00-.107.534 1.378 1.378 0 00.107.533 1.396 1.396 0 00.514.627 1.374 1.374 0 00.502.208 1.378 1.378 0 001.26-.381 1.411 1.411 0 00.382-.715 1.376 1.376 0 000-.546zM15.854 51.231a1.367 1.367 0 00-.593-.888 1.374 1.374 0 00-.502-.208 1.374 1.374 0 00-.806.08 1.377 1.377 0 00-.755.755 1.41 1.41 0 00-.107.533 1.378 1.378 0 00.107.535 1.42 1.42 0 00.302.452 1.374 1.374 0 00.715.381 1.378 1.378 0 001.258-.381 1.405 1.405 0 00.381-1.259z" fill="#fff"/></svg>
